X:1
T:Title
%%score { ( 1 4 ) | ( 2 3 ) }
L:1/8
M:6/8
K:Ab
V:1 treble nm="Grand Piano"
V:4 treble 
V:2 treble 
V:3 treble 
V:1
 z3 z2[Q:1/4=100] E | cBA Bcd | c2 B .A3 | GGG GF[B,DG] | [A,CA]3- [A,CA]2 E | cBA Bcd | c2 B .A3 | %7
 GGG GFG | [CA]3- [CA]2 G/A/ | B2 B BA[B,EG] | [A,EA]2 [EB] [Ec]2 B/c/ | d2 d dcB | c2 d e2 [Gd] | %13
 [Ac]2 [Ac] cB[EA] | [FB]2 F F2 F/F/ | EAA GA[DEB] |[M:5/8] [CEA]-[CEA]- [CEA]3 | %17
[M:3/4] [Ec][Ec] [Ec]c B[Ac] | [Ae]2- [CA-e-] [CAe]3 | AA AA G[CFA] | %20
[M:5/8] [GB]2- [EG-B-] [B,GB]2 |[M:1/8] c/d/ |[M:3/4] e2 c d2 [_Gc] | [FB]2 F F2 F/F/ | %24
 EA AG A[DEB] |[M:5/8] [CEA]-[CEA]- [CEA]3 |] %26
V:2
 z3 z2 C | EDC DEF | E2 D .C3 | [E,B,D][E,B,D][E,B,D] [E,B,D]2 E, | A,,3- A,,2[K:treble] C | %5
 EDC DEF | E2 D .C3 | [E,B,D][E,B,D][E,B,D] [E,B,D]2 [E,B,D] | z3 z2 [E,E] | [E,DE]2 [E,DE] DCD, | %10
 z3 z2 [E,E] | z3 .B,3 | [A,E]2 [A,B,E] [A,CA]2[K:bass] [E,B,] | %13
 [A,,A,]2 [A,,A,] [A,,A,][B,,G,][C,A,] | [D,D]2 [D,A,D] [D,A,D]2 [D,A,D]/[D,A,D]/ | z3 .B,3 | %16
[M:5/8] A,,-A,,- A,,3 |[M:3/4] [A,,A,][A,,A,] [A,,A,][A,,A,] [B,,G,][A,,A,] | A,,C, E, .A,3 | %19
 [F,CF][F,CF] [F,CF]F =E[K:bass]F, |[M:5/8] E,2 E, E,2 |[M:1/8][K:treble] E/ z/ | %22
[M:3/4] [A,CA]2 [G,A,E] [F,A,F]2[K:bass] [E,A,] | [D,D]2 [D,A,D] [D,A,D]2 [D,A,D]/[D,A,D]/ | %24
 z2 z B, z2 |[M:5/8] A,,-A,,- A,,3 |] %26
V:3
 x6 | x6 | x6 | x6 | x5[K:treble] x | x6 | x6 | x6 | [A,,A,]3- [A,,A,]2 B,/C/ | z3 .[E,E]3 | %10
 C,2 [B,,G,] [A,,A,]2 G,/A,/ | [E,B,E]2 [E,B,E] [E,E]-[E,A,E][E,G,E] | x5[K:bass] x | x6 | x6 | %15
 [E,A,C][E,CE][E,CE] [E,E]-[E,CE]E, |[M:5/8] x5 |[M:3/4] x6 | x6 | z2 z .[F,C]3[K:bass] | %20
[M:5/8] x5 |[M:1/8][K:treble] [A,A]/-[A,B,A]/ |[M:3/4] x5[K:bass] x | x6 | %24
 [E,A,C][E,CE] [E,CE][E,E]- [E,CE]E, |[M:5/8] x5 |] %26
V:4
 x6 | x6 | x6 | x6 | x6 | x6 | x6 | x6 | x6 | x6 | x6 | x6 | x6 | z3 .E3 | x6 | x6 |[M:5/8] x5 | %17
[M:3/4] z2 z .E3 | C2 z2 z2 | x6 |[M:5/8] E2 z z2 |[M:1/8] x |[M:3/4] x6 | x6 | x6 |[M:5/8] x5 |] %26

